svg/u1f239.svg

<svg viewBox="0 0 128 128" xmlns="http://www.w3.org/2000/svg">
  <path d="M116,4H12c-4.42,0-8,3.58-8,8v104c0,4.42,3.58,8,8,8h104c4.42,0,8-3.58,8-8V12 C124,7.58,120.42,4,116,4z" fill="#CC3333"/>
  <path d="M109.7,4H11.5C7.37,4.03,4.03,7.37,4,11.5v97.9c-0.01,4.14,3.34,7.49,7.48,7.5c0.01,0,0.01,0,0.02,0 h98.1c4.14,0.01,7.49-3.34,7.5-7.48c0-0.01,0-0.01,0-0.02V11.5c0.09-4.05-3.13-7.41-7.18-7.5C109.85,4,109.77,4,109.7,4z" fill="#F44336"/>
  <path d="M39.7,12.9c0-2.3-1.6-3-10.8-2.7c-7.7,0.3-11.5,1.2-13.8,4s-2.9,8.5-3,15.3c0,4.8,0,9.3,2.5,9.3 c3.4,0,3.4-7.9,6.2-12.3C26.2,17.8,39.7,15.9,39.7,12.9z" fill="#FF8A80"/>
  <g>
    <path d="M84,78.8v-45c0-1.1-0.9-2-2-2h-2.9c-1.1,0-2,0.9-2,2v45c0,1.1,0.9,2,2,2H82 C83.1,80.8,84,79.9,84,78.8z" fill="#FAFAFA"/>
    <path d="M98.4,20.1h-3.3c-1.1,0-2,0.9-2,2v70c0,1.6-0.6,2-2,2c-1,0.1-4,0.1-7.6,0c-0.2,0-0.4,0.03-0.59,0.09 c-1.05,0.33-1.64,1.45-1.31,2.51c0.23,1.28,0.55,2.33,1,3.6c0.19,0.95,1.03,1.62,2,1.6c5.9,0,9.7-0.4,12.1-1.6 c2.6-1.3,3.7-3.5,3.7-8.2v-70C100.4,21,99.5,20.1,98.4,20.1z" fill="#FAFAFA"/>
    <path d="M64.6,75.3H30.8c-1.11,0.03-2.02,0.89-2.1,2v23.5c0,1.1,0.9,2,2,2h2.9c1.1,0,2-0.9,2-2v-2.1 c0-0.55,0.45-1,1-1h21.9c0.55,0,1,0.45,1,1v1.3c0,1.1,0.9,2,2,2h3.1c1.1,0,2-0.9,2-2V77.3C66.6,76.2,65.7,75.3,64.6,75.3z M59.4,90.9c0,0.55-0.45,1-1,1H36.6c-0.55,0-1-0.45-1-1v-7.4c0-0.55,0.45-1,1-1h21.8c0.55,0,1,0.45,1,1V90.9z" fill="#FAFAFA"/>
    <path d="M69,62.8H52.4c-0.54-0.04-0.96-0.46-1-1v-2.9c0.04-0.54,0.46-0.96,1-1h10.5c1.1,0,2-0.9,2-2v-2 c0-1.1-0.9-2-2-2H52.6c-0.54-0.04-0.96-0.46-1-1v-3.2c0-0.52,0.39-0.95,0.9-1c3.6-0.4,6.52-0.35,9.59-0.65 c0.41-0.04,1.38-0.13,1.66-0.42c0.77-0.79,0.75-2.06-0.05-2.83c-0.7-0.7-1.41-1.24-2.09-1.78c-0.51-0.41-1.05-0.69-1.69-0.6 c-2.54,0.05-3.64,0.15-7.31,0.18c-0.04,0-0.07,0.01-0.1,0.01c-0.55,0-1-0.45-0.99-1.01v-1.9c-0.04-0.54-0.46-0.96-1-1h-5.9 c-0.54,0.04-0.96,0.46-1,1v2.9c0,0.52-0.39,0.95-0.9,1c-3.5,0.3-7,0.5-10.4,0.6c-0.03,0-0.07,0-0.1,0c0,0,0,0-0.01,0 c-0.26,0.01-0.94,0.07-1.2,0.51c-0.31,0.54-0.88,2.6-0.69,3.78c0.26,0.83,1.03,1.4,1.9,1.4c3.3-0.1,6.8-0.2,10.3-0.4 c0.03,0,0.07-0.01,0.11-0.01c0.55,0,1,0.45,0.99,1.01V51c-0.04,0.54-0.46,0.96-1,1h-9.9c-1.1,0-2,0.9-2,2v2c0,1.1,0.9,2,2,2h9.9 c0.54,0.04,0.96,0.46,1,1v2.8c-0.04,0.54-0.46,0.96-1,1H25.8c-1.1,0-2,0.9-2,2v2.1c0,1.1,0.9,2,2,2H69c1.1,0,2-0.9,2-2v-2.1 C71,63.7,70.1,62.8,69,62.8z" fill="#FAFAFA"/>
    <path d="M69.6,28.1H53.1c-0.39-0.01-0.74-0.24-0.9-0.6c-1.07-2.53-2.34-4.97-3.8-7.3 c-0.49-0.89-1.59-1.24-2.5-0.8c-0.8,0.3-1.8,0.7-2.7,1c-0.06,0.03-0.13,0.06-0.19,0.09c-0.97,0.52-1.33,1.74-0.81,2.71 c0.6,1.2,1.3,2.4,1.8,3.5c0.05,0.12,0.08,0.25,0.08,0.38c0.01,0.55-0.43,1.01-0.98,1.02H25.6c-1.1,0-2,0.9-2,2v10.6 c0,0.03,0,0.06,0,0.09c0.08,1.14,1.06,1.99,2.2,1.91h1.8c0,0,0.98,0.02,1.69-0.03c0.5-0.03,0.87-0.35,0.91-0.87 c0.04-0.64,0.01-1.47,0.01-1.47l0.01-0.01c0-0.04-0.01-0.08-0.01-0.12v-5c0.04-0.54,0.46-0.96,1-1h32.6c0.55,0,1,0.45,1,1v5.1 c0,1.1,0.9,2,2,2h2.8c1.1,0,2-0.9,2-2V30.1C71.6,29,70.7,28.1,69.6,28.1z" fill="#FAFAFA"/>
  </g>
</svg>

<svg viewBox="0 0 128 128" xmlns="http://www.w3.org/2000/svg">
  <defs/>
  <path d="M116,4 L12,4 C7.58,4 4,7.58 4,12 L4,116 C4,120.42 7.58,124 12,124 L116,124 C120.42,124 124,120.42 124,116 L124,12 C124,7.58 120.42,4 116,4 Z" fill="#CC3333"/>
  <path d="M109.7,4 L11.5,4 C7.37,4.03 4.03,7.37 4,11.5 L4,109.4 C3.99,113.54 7.34,116.89 11.48,116.9 C11.49,116.9 11.49,116.9 11.5,116.9 L109.6,116.9 C113.74,116.91 117.09,113.56 117.1,109.42 C117.1,109.41 117.1,109.41 117.1,109.4 L117.1,11.5 C117.19,7.45 113.97,4.09 109.92,4 C109.85,4 109.77,4 109.7,4 Z" fill="#F44336"/>
  <path d="M39.7,12.9 C39.7,10.6 38.1,9.9 28.9,10.2 C21.2,10.5 17.4,11.4 15.1,14.2 C12.8,17 12.2,22.7 12.1,29.5 C12.1,34.3 12.1,38.8 14.6,38.8 C18,38.8 18,30.9 20.8,26.5 C26.2,17.8 39.7,15.9 39.7,12.9 Z" fill="#FF8A80"/>
  <path d="M84,78.8 L84,33.8 C84,32.7 83.1,31.8 82,31.8 L79.1,31.8 C78,31.8 77.1,32.7 77.1,33.8 L77.1,78.8 C77.1,79.9 78,80.8 79.1,80.8 L82,80.8 C83.1,80.8 84,79.9 84,78.8 Z" fill="#FAFAFA"/>
  <path d="M98.4,20.1 L95.1,20.1 C94,20.1 93.1,21 93.1,22.1 L93.1,92.1 C93.1,93.7 92.5,94.1 91.1,94.1 C90.1,94.2 87.1,94.2 83.5,94.1 C83.3,94.1 83.1,94.13 82.91,94.19 C81.86,94.52 81.27,95.64 81.6,96.7 C81.83,97.98 82.15,99.03 82.6,100.3 C82.79,101.25 83.63,101.92 84.6,101.9 C90.5,101.9 94.3,101.5 96.7,100.3 C99.3,99 100.4,96.8 100.4,92.1 L100.4,22.1 C100.4,21 99.5,20.1 98.4,20.1 Z" fill="#FAFAFA"/>
  <path d="M64.6,75.3 L30.8,75.3 C29.69,75.33 28.78,76.19 28.7,77.3 L28.7,100.8 C28.7,101.9 29.6,102.8 30.7,102.8 L33.6,102.8 C34.7,102.8 35.6,101.9 35.6,100.8 L35.6,98.7 C35.6,98.15 36.05,97.7 36.6,97.7 L58.5,97.7 C59.05,97.7 59.5,98.15 59.5,98.7 L59.5,100 C59.5,101.1 60.4,102 61.5,102 L64.6,102 C65.7,102 66.6,101.1 66.6,100 L66.6,77.3 C66.6,76.2 65.7,75.3 64.6,75.3 Z M59.4,90.9 C59.4,91.45 58.95,91.9 58.4,91.9 L36.6,91.9 C36.05,91.9 35.6,91.45 35.6,90.9 L35.6,83.5 C35.6,82.95 36.05,82.5 36.6,82.5 L58.4,82.5 C58.95,82.5 59.4,82.95 59.4,83.5 L59.4,90.9 Z" fill="#FAFAFA"/>
  <path d="M69,62.8 L52.4,62.8 C51.86,62.76 51.44,62.34 51.4,61.8 L51.4,58.9 C51.44,58.36 51.86,57.94 52.4,57.9 L62.9,57.9 C64,57.9 64.9,57 64.9,55.9 L64.9,53.9 C64.9,52.8 64,51.9 62.9,51.9 L52.6,51.9 C52.06,51.86 51.64,51.44 51.6,50.9 L51.6,47.7 C51.6,47.18 51.99,46.75 52.5,46.7 C56.1,46.3 59.02,46.35 62.09,46.05 C62.5,46.01 63.47,45.92 63.75,45.63 C64.52,44.84 64.5,43.57 63.7,42.8 C63,42.1 62.29,41.56 61.61,41.02 C61.1,40.61 60.56,40.33 59.92,40.42 C57.38,40.47 56.28,40.57 52.61,40.6 C52.57,40.6 52.54,40.61 52.51,40.61 C51.96,40.61 51.51,40.16 51.52,39.6 L51.52,37.7 C51.48,37.16 51.06,36.74 50.52,36.7 L44.62,36.7 C44.08,36.74 43.66,37.16 43.62,37.7 L43.62,40.6 C43.62,41.12 43.23,41.55 42.72,41.6 C39.22,41.9 35.72,42.1 32.32,42.2 C32.29,42.2 32.25,42.2 32.22,42.2 C32.22,42.2 32.22,42.2 32.21,42.2 C31.95,42.21 31.27,42.27 31.01,42.71 C30.7,43.25 30.13,45.31 30.32,46.49 C30.58,47.32 31.35,47.89 32.22,47.89 C35.52,47.79 39.02,47.69 42.52,47.49 C42.55,47.49 42.59,47.48 42.63,47.48 C43.18,47.48 43.63,47.93 43.62,48.49 L43.62,51 C43.58,51.54 43.16,51.96 42.62,52 L32.72,52 C31.62,52 30.72,52.9 30.72,54 L30.72,56 C30.72,57.1 31.62,58 32.72,58 L42.62,58 C43.16,58.04 43.58,58.46 43.62,59 L43.62,61.8 C43.58,62.34 43.16,62.76 42.62,62.8 L25.8,62.8 C24.7,62.8 23.8,63.7 23.8,64.8 L23.8,66.9 C23.8,68 24.7,68.9 25.8,68.9 L69,68.9 C70.1,68.9 71,68 71,66.9 L71,64.8 C71,63.7 70.1,62.8 69,62.8 Z" fill="#FAFAFA"/>
  <path d="M69.6,28.1 L53.1,28.1 C52.71,28.09 52.36,27.86 52.2,27.5 C51.13,24.97 49.86,22.53 48.4,20.2 C47.91,19.31 46.81,18.96 45.9,19.4 C45.1,19.7 44.1,20.1 43.2,20.4 C43.14,20.43 43.07,20.46 43.01,20.49 C42.04,21.01 41.68,22.23 42.2,23.2 C42.8,24.4 43.5,25.6 44,26.7 C44.05,26.82 44.08,26.95 44.08,27.08 C44.09,27.63 43.65,28.09 43.1,28.1 L25.6,28.1 C24.5,28.1 23.6,29 23.6,30.1 L23.6,40.7 C23.6,40.73 23.6,40.76 23.6,40.79 C23.68,41.93 24.66,42.78 25.8,42.7 L27.6,42.7 C27.6,42.7 28.58,42.72 29.29,42.67 C29.79,42.64 30.16,42.32 30.2,41.8 C30.24,41.16 30.21,40.33 30.21,40.33 L30.22,40.32 C30.22,40.28 30.21,40.24 30.21,40.2 L30.21,35.2 C30.25,34.66 30.67,34.24 31.21,34.2 L63.81,34.2 C64.36,34.2 64.81,34.65 64.81,35.2 L64.81,40.3 C64.81,41.4 65.71,42.3 66.81,42.3 L69.61,42.3 C70.71,42.3 71.61,41.4 71.61,40.3 L71.61,30.1 C71.6,29 70.7,28.1 69.6,28.1 Z" fill="#FAFAFA"/>
</svg>
